luts/03_Inspired By Peter McKinnon LUTs_Pure Whites.cube
LUT_3D_SIZE 16
0.000000 0.000000 0.000000
0.066621 0.000000 0.000000
0.126360 0.000000 0.000000
0.188942 0.000000 0.000000
0.258119 0.000000 0.000000
0.333223 0.000000 0.000000
0.410963 0.000000 0.000000
0.491087 0.000000 0.000000
0.571681 0.000000 0.000000
0.648622 0.000000 0.000000
0.721454 0.000000 0.000000
0.787416 0.000000 0.000000
0.849614 0.000000 0.000000
0.906932 0.000000 0.000000
0.954994 0.000000 0.000000
0.990163 0.000000 0.000000
0.000000 0.034485 0.000000
0.066621 0.034485 0.000000
0.126360 0.037205 0.000000
0.188942 0.040839 0.000000
0.258119 0.045126 0.000000
0.333223 0.048508 0.000000
0.410963 0.052443 0.000000
0.491087 0.055843 0.000000
0.571681 0.058795 0.000000
0.648622 0.060941 0.000000
0.721454 0.062479 0.000000
0.787416 0.062783 0.000000
0.849614 0.063495 0.000000
0.906932 0.062855 0.000000
0.954994 0.062573 0.000000
0.990163 0.061013 0.000000
0.000000 0.076934 0.000000
0.071544 0.076934 0.000000
0.126360 0.076934 0.000000
0.189535 0.083429 0.000000
0.258119 0.091199 0.000000
0.333223 0.099026 0.000000
0.410963 0.107071 0.000000
0.491087 0.114001 0.000000
0.571681 0.120038 0.000000
0.648622 0.124423 0.000000
0.721454 0.127553 0.000000
0.787416 0.129110 0.000000
0.849614 0.129636 0.000000
0.906932 0.129263 0.000000
0.954994 0.127751 0.000000
0.990163 0.124566 0.000000
0.000000 0.127137 0.000000
0.076589 0.127137 0.000000
0.134907 0.127137 0.000000
0.190282 0.127137 0.000000
0.258119 0.138915 0.000000
0.333223 0.151286 0.000000
0.410963 0.162524 0.000000
0.491087 0.173060 0.000000
0.571681 0.182218 0.000000
0.648622 0.188877 0.000000
0.721454 0.193638 0.000000
0.787416 0.195529 0.000000
0.849614 0.196794 0.000000
0.906932 0.196732 0.000000
0.954994 0.193930 0.000000
0.990163 0.189118 0.000000
0.000000 0.186753 0.000000
0.082219 0.186753 0.000000
0.145739 0.186753 0.000000
0.203919 0.186753 0.000000
0.259183 0.187136 0.000000
0.333223 0.203157 0.000000
0.410963 0.218594 0.000000
0.491087 0.232758 0.000000
0.571681 0.245077 0.000000
0.648622 0.254010 0.000000
0.721454 0.260426 0.000000
0.787416 0.263616 0.000000
0.849614 0.264675 0.000000
0.906932 0.264866 0.000000
0.954994 0.260824 0.000000
0.990163 0.254309 0.000000
0.000000 0.255473 0.000000
0.087930 0.255473 0.000000
0.155228 0.255473 0.000000
0.218603 0.255473 0.000000
0.277060 0.255859 0.000000
0.333223 0.255383 0.000000
0.410963 0.275074 0.000000
0.491087 0.292867 0.000000
0.571681 0.308359 0.000000
0.648622 0.319647 0.000000
0.721454 0.326712 0.000000
0.787416 0.331235 0.000000
0.849614 0.333031 0.000000
0.906932 0.331587 0.000000
0.954994 0.328193 0.000000
0.990163 0.319998 0.000000
0.000000 0.331856 0.000000
0.093296 0.331856 0.000000
0.164603 0.331856 0.000000
0.231781 0.331856 0.000000
0.293675 0.331856 0.000000
0.353211 0.332033 0.000000
0.410963 0.331856 0.000000
0.491087 0.353310 0.000000
0.571681 0.372044 0.000000
0.648622 0.385617 0.000000
0.721454 0.394405 0.000000
0.787416 0.399240 0.000000
0.849614 0.401747 0.000000
0.906932 0.400693 0.000000
0.954994 0.395909 0.000000
0.990163 0.386124 0.000000
0.000000 0.414127 0.000000
0.098135 0.414127 0.000000
0.173859 0.414127 0.000000
0.243315 0.414127 0.000000
0.309277 0.414127 0.000000
0.371981 0.414127 0.000000
0.432231 0.414127 0.000000
0.491087 0.414127 0.000000
0.571681 0.436077 0.000000
0.648622 0.451952 0.000000
0.721454 0.463354 0.000000
0.787416 0.467570 0.000000
0.849614 0.470920 0.000000
0.906932 0.470038 0.000000
0.954994 0.464099 0.000000
0.990163 0.452472 0.000000
0.000000 0.500375 0.000000
0.102290 0.500375 0.000000
0.180729 0.500375 0.000000
0.254232 0.500375 0.000000
0.321815 0.500375 0.000000
0.388087 0.500375 0.000000
0.450570 0.500375 0.000000
0.511871 0.500375 0.000000
0.571681 0.500375 0.000000
0.648622 0.518575 0.000000
0.721454 0.531705 0.000000
0.787416 0.537237 0.000000
0.849614 0.539366 0.000000
0.906932 0.539765 0.000000
0.954994 0.532480 0.000000
0.990163 0.519184 0.000000
0.000000 0.585471 0.000000
0.105268 0.585471 0.000000
0.186442 0.585471 0.000000
0.260945 0.585471 0.000000
0.330886 0.585471 0.000000
0.398108 0.585471 0.000000
0.463715 0.585471 0.000000
0.526783 0.585471 0.000000
0.588372 0.585471 0.000000
0.648622 0.585471 0.000000
0.721168 0.599231 0.000000
0.787416 0.606134 0.000000
0.849614 0.609044 0.000000
0.906932 0.607821 0.000000
0.954994 0.601207 0.000000
0.990163 0.586196 0.000000
0.000000 0.667757 0.000000
0.107236 0.667757 0.000000
0.189817 0.667757 0.000000
0.266790 0.667757 0.000000
0.337088 0.667757 0.000000
0.406602 0.667757 0.000000
0.472351 0.667757 0.000000
0.536593 0.667757 0.000000
0.599349 0.667757 0.000000
0.660728 0.667757 0.000000
0.721383 0.667757 0.000000
0.787287 0.675597 0.000000
0.849614 0.678967 0.000000
0.906932 0.678006 0.000000
0.954994 0.670111 0.000000
0.990163 0.653359 0.000000
0.000000 0.746345 0.000000
0.108363 0.746345 0.000000
0.192092 0.746345 0.000000
0.268768 0.746345 0.000000
0.341437 0.746345 0.000000
0.409636 0.746345 0.000000
0.477294 0.746345 0.000000
0.542223 0.746345 0.000000
0.605596 0.746345 0.000000
0.667674 0.746345 0.000000
0.728248 0.746345 0.000000
0.788123 0.746345 0.000000
0.849614 0.749130 0.000000
0.906932 0.748414 0.000000
0.954994 0.739222 0.000000
0.990163 0.720736 0.000000
0.000000 0.819919 0.000000
0.108766 0.819919 0.000000
0.192092 0.819919 0.000000
0.270162 0.819919 0.000000
0.342386 0.819919 0.000000
0.411848 0.819919 0.000000
0.479114 0.819919 0.000000
0.544300 0.819919 0.000000
0.607898 0.819919 0.000000
0.670150 0.819919 0.000000
0.731313 0.819919 0.000000
0.791377 0.819919 0.000000
0.849614 0.819302 0.000000
0.906932 0.819053 0.000000
0.954994 0.808386 0.000000
0.990163 0.788314 0.000000
0.000000 0.887856 0.000000
0.108503 0.887856 0.000000
0.192092 0.887856 0.000000
0.269934 0.887856 0.000000
0.341118 0.887856 0.000000
0.411428 0.887856 0.000000
0.477957 0.887856 0.000000
0.542981 0.887856 0.000000
0.606435 0.887856 0.000000
0.668517 0.887856 0.000000
0.729847 0.887856 0.000000
0.788988 0.887856 0.000000
0.847942 0.887940 0.000000
0.906932 0.887955 0.000000
0.954994 0.877978 0.000000
0.990163 0.856109 0.000000
0.000000 0.947487 0.000000
0.107538 0.947487 0.000000
0.189817 0.947487 0.000000
0.267038 0.947487 0.000000
0.338510 0.947487 0.000000
0.407262 0.947487 0.000000
0.473654 0.947487 0.000000
0.538142 0.947487 0.000000
0.601020 0.947487 0.000000
0.662551 0.947487 0.000000
0.722951 0.947487 0.000000
0.782371 0.947487 0.000000
0.840550 0.947487 0.000000
0.898770 0.947715 0.000000
0.954994 0.947487 0.000000
0.990163 0.923813 0.000000
0.000000 0.991206 0.000000
0.105370 0.991206 0.000000
0.186442 0.991206 0.000000
0.261027 0.991206 0.000000
0.331349 0.991206 0.000000
0.399622 0.991206 0.000000
0.464175 0.991206 0.000000
0.527286 0.991206 0.000000
0.588925 0.991206 0.000000
0.649267 0.991206 0.000000
0.708722 0.991206 0.000000
0.766079 0.991206 0.000000
0.823212 0.991206 0.000000
0.880744 0.991206 0.000000
0.935750 0.991206 0.000000
0.990163 0.991206 0.000000
0.000000 0.000000 0.021948
0.066621 0.000000 0.021948
0.126360 0.000000 0.023998
0.188942 0.000000 0.026784
0.258119 0.000000 0.030127
0.333223 0.000000 0.032807
0.410963 0.000000 0.035959
0.491087 0.000000 0.038722
0.571681 0.000000 0.041147
0.648622 0.000000 0.042919
0.721454 0.000000 0.044195
0.787416 0.000000 0.044451
0.849614 0.000000 0.045045
0.906932 0.000000 0.044510
0.954994 0.000000 0.044279
0.990163 0.000000 0.042981
0.000000 0.034485 0.021948
0.066621 0.034485 0.021948
0.126360 0.034485 0.021948
0.188942 0.034485 0.021948
0.258119 0.034485 0.021948
0.333223 0.034485 0.021948
0.410963 0.034485 0.021948
0.491087 0.034485 0.021948
0.571681 0.034485 0.021948
0.648622 0.034485 0.021948
0.721454 0.034485 0.021948
0.787416 0.034485 0.021948
0.849614 0.034485 0.021948
0.906932 0.034485 0.021948
0.954994 0.034485 0.021948
0.990163 0.034485 0.021948
0.000000 0.076934 0.024366
0.066621 0.076934 0.021948
0.126360 0.076934 0.022305
0.188942 0.081573 0.021948
0.258119 0.087806 0.021948
0.333223 0.095626 0.021948
0.410963 0.101785 0.021948
0.491087 0.107775 0.021948
0.571681 0.113024 0.021948
0.648622 0.116838 0.021948
0.721454 0.119588 0.021948
0.787416 0.120596 0.021948
0.849614 0.120615 0.021948
0.906932 0.120602 0.021948
0.954994 0.119674 0.021948
0.990163 0.116844 0.021948
0.000000 0.127137 0.026926
0.066621 0.127137 0.021948
0.133695 0.127137 0.022081
0.190079 0.127137 0.021948
0.258119 0.137287 0.021948
0.333223 0.149062 0.021948
0.410963 0.159955 0.021948
0.491087 0.169879 0.021948
0.571681 0.178562 0.021948
0.648622 0.184855 0.021948
0.721454 0.189026 0.021948
0.787416 0.190571 0.021948
0.849614 0.191405 0.021948
0.906932 0.191508 0.021948
0.954994 0.189499 0.021948
0.990163 0.184858 0.021948
0.000000 0.186753 0.029874
0.066621 0.186752 0.021948
0.142151 0.186753 0.022185
0.202411 0.186752 0.021948
0.259183 0.186782 0.021948
0.333223 0.203253 0.021948
0.410963 0.217270 0.021948
0.491087 0.230961 0.021948
0.571681 0.242869 0.021948
0.648622 0.251513 0.021948
0.721454 0.257255 0.021948
0.787416 0.260140 0.021948
0.849614 0.261759 0.021948
0.906932 0.260150 0.021948
0.954994 0.257922 0.021948
0.990163 0.251522 0.021948
0.000000 0.255473 0.032964
0.066621 0.255473 0.021948
0.150509 0.255473 0.022374
0.215701 0.255473 0.021948
0.276023 0.255306 0.021948
0.333223 0.255362 0.021948
0.410963 0.274509 0.021948
0.491087 0.291898 0.021948
0.571681 0.307009 0.021948
0.648622 0.318013 0.021948
0.721454 0.325369 0.021948
0.787416 0.328643 0.021948
0.849614 0.330979 0.021948
0.906932 0.329591 0.021948
0.954994 0.326145 0.021948
0.990163 0.318021 0.021948
0.000000 0.331856 0.035959
0.066621 0.331856 0.021948
0.158758 0.331856 0.022425
0.228834 0.331856 0.021948
0.292633 0.331856 0.021948
0.353211 0.331647 0.021948
0.410963 0.331856 0.021948
0.491087 0.352939 0.021948
0.571681 0.371321 0.021948
0.648622 0.384568 0.021948
0.721454 0.393616 0.021948
0.787416 0.398181 0.021948
0.849614 0.399297 0.021948
0.906932 0.399154 0.021948
0.954994 0.394474 0.021948
0.990163 0.384594 0.021948
0.000000 0.414127 0.038722
0.066621 0.414127 0.021948
0.165751 0.414127 0.022226
0.239649 0.414127 0.021948
0.306834 0.414127 0.021948
0.370997 0.414127 0.021948
0.431857 0.414127 0.021948
0.491087 0.414127 0.021948
0.571681 0.435729 0.021948
0.648622 0.451349 0.021948
0.721454 0.462033 0.021948
0.787416 0.466955 0.021948
0.849614 0.468818 0.021948
0.906932 0.468947 0.021948
0.954994 0.462946 0.021948
0.990163 0.451368 0.021948
0.000000 0.500375 0.041147
0.066621 0.500375 0.021948
0.172722 0.500375 0.022372
0.249298 0.500375 0.021948
0.319995 0.500375 0.021948
0.385826 0.500375 0.021948
0.449811 0.500375 0.021948
0.511523 0.500375 0.021948
0.571681 0.500375 0.021948
0.648622 0.518326 0.021948
0.721454 0.530731 0.021948
0.787416 0.535975 0.021948
0.849614 0.539495 0.021948
0.906932 0.537930 0.021948
0.954994 0.531650 0.021948
0.990163 0.518296 0.021948
0.000000 0.585471 0.042919
0.066621 0.585471 0.021948
0.177315 0.585471 0.021917
0.256755 0.585471 0.021948
0.329791 0.585471 0.021948
0.397494 0.585471 0.021948
0.462722 0.585471 0.021948
0.526242 0.585471 0.021948
0.588133 0.585471 0.021948
0.648622 0.585471 0.021948
0.720871 0.599231 0.021948
0.787416 0.606134 0.021948
0.849614 0.609440 0.021948
0.906932 0.608142 0.021948
0.954994 0.600588 0.021948
0.990163 0.585511 0.021948
0.000000 0.667757 0.044099
0.066621 0.667757 0.021948
0.179582 0.667757 0.022285
0.260984 0.667757 0.021948
0.334888 0.667757 0.021948
0.403840 0.667757 0.021948
0.471193 0.667757 0.021948
0.535857 0.667757 0.021948
0.598899 0.667757 0.021948
0.660514 0.667757 0.021948
0.720997 0.667757 0.021948
0.787066 0.675597 0.021948
0.849614 0.679453 0.021948
0.906932 0.678451 0.021948
0.954994 0.669541 0.021948
0.990163 0.652847 0.021948
0.000000 0.746345 0.044779
0.066621 0.746345 0.021948
0.181892 0.746345 0.022204
0.264156 0.746345 0.021948
0.338054 0.746345 0.021948
0.407815 0.746345 0.021948
0.476019 0.746345 0.021948
0.541363 0.746345 0.021948
0.605073 0.746345 0.021948
0.667323 0.746345 0.021948
0.727679 0.746345 0.021948
0.788583 0.746345 0.021948
0.849614 0.748734 0.021948
0.906932 0.748147 0.021948
0.954994 0.738836 0.021948
0.990163 0.720367 0.021948
0.000000 0.819919 0.045024
0.066621 0.819919 0.021948
0.183025 0.819919 0.022421
0.265211 0.819919 0.021948
0.339848 0.819919 0.021948
0.409825 0.819919 0.021948
0.477683 0.819919 0.021948
0.543307 0.819919 0.021948
0.607215 0.819919 0.021948
0.669738 0.819919 0.021948
0.730697 0.819919 0.021948
0.790878 0.819919 0.021948
0.849614 0.819156 0.021948
0.906932 0.817704 0.021948
0.954994 0.808236 0.021948
0.990163 0.787970 0.021948
0.000000 0.887856 0.044863
0.066621 0.887856 0.021948
0.181892 0.887856 0.022281
0.264156 0.887856 0.021948
0.338598 0.887856 0.021948
0.409360 0.887856 0.021948
0.476532 0.887856 0.021948
0.541922 0.887856 0.021948
0.605723 0.887856 0.021948
0.668041 0.887856 0.021948
0.729278 0.887856 0.021948
0.789300 0.887856 0.021948
0.847942 0.887898 0.021948
0.906932 0.887717 0.021948
0.954994 0.877936 0.021948
0.990163 0.855946 0.021948
0.000000 0.947487 0.044279
0.066621 0.947487 0.021948
0.180729 0.947487 0.022445
0.262048 0.947487 0.021948
0.334963 0.947487 0.021948
0.405129 0.947487 0.021948
0.472202 0.947487 0.021948
0.537081 0.947487 0.021948
0.600254 0.947487 0.021948
0.661981 0.947487 0.021948
0.722311 0.947487 0.021948
0.782629 0.947487 0.021948
0.840550 0.947487 0.021948
0.898770 0.947664 0.021948
0.954994 0.947487 0.021948
0.990163 0.923764 0.021948
0.000000 0.991206 0.042981
0.066621 0.991206 0.021948
0.177315 0.991206 0.021972
0.256755 0.991206 0.021948
0.329808 0.991206 0.021948
0.397519 0.991206 0.021948
0.462742 0.991206 0.021948
0.526262 0.991206 0.021948
0.588113 0.991206 0.021948
0.648661 0.991206 0.021948
0.707109 0.991206 0.021948
0.766385 0.991206 0.021948
0.823175 0.991206 0.021948
0.880744 0.991206 0.021948
0.935710 0.991206 0.021948
0.990163 0.991206 0.021948
0.000000 0.000000 0.056480
0.071544 0.000000 0.056480
0.126360 0.000000 0.056480
0.189535 0.000000 0.062137
0.258119 0.000000 0.069013
0.333223 0.000000 0.076050
0.410963 0.000000 0.083368
0.491087 0.000000 0.089767
0.571681 0.000000 0.095383
0.648622 0.000000 0.099501
0.721454 0.000000 0.102467
0.787416 0.000000 0.103945
0.849614 0.000000 0.104432
0.906932 0.000000 0.104084
0.954994 0.000000 0.102645
0.990163 0.000000 0.099636
0.000000 0.037687 0.056480
0.066621 0.034485 0.056480
0.126360 0.034965 0.056480
0.188942 0.034485 0.060510
0.258119 0.034485 0.065995
0.333223 0.034485 0.072975
0.410963 0.034485 0.078545
0.491087 0.034485 0.084019
0.571681 0.034485 0.088868
0.648622 0.034485 0.092408
0.721454 0.034485 0.094969
0.787416 0.034485 0.095908
0.849614 0.034485 0.095920
0.906932 0.034485 0.095906
0.954994 0.034485 0.095059
0.990163 0.034485 0.092405
0.000000 0.076934 0.056480
0.066621 0.076934 0.056480
0.126360 0.076934 0.056480
0.188942 0.076934 0.056480
0.258119 0.076934 0.056480
0.333223 0.076934 0.056480
0.410963 0.076934 0.056480
0.491087 0.076934 0.056480
0.571681 0.076934 0.056480
0.648622 0.076934 0.056480
0.721454 0.076934 0.056480
0.787416 0.076934 0.056480
0.849614 0.076934 0.056480
0.906932 0.076934 0.056480
0.954994 0.076934 0.056480
0.990163 0.076934 0.056480
0.000000 0.127137 0.062411
0.066621 0.127137 0.061069
0.126360 0.127137 0.056748
0.190079 0.127137 0.056229
0.258119 0.134397 0.056480
0.333223 0.142483 0.056480
0.410963 0.149489 0.056480
0.491087 0.156646 0.056480
0.571681 0.162990 0.056480
0.648622 0.167625 0.056480
0.721454 0.170567 0.056480
0.787416 0.171399 0.056480
0.849614 0.172542 0.056480
0.906932 0.172662 0.056480
0.954994 0.170650 0.056480
0.990163 0.166967 0.056480
0.000000 0.186753 0.069246
0.066621 0.186752 0.066662
0.126360 0.186753 0.056194
0.197939 0.186752 0.056095
0.259183 0.187312 0.056480
0.333223 0.199855 0.056480
0.410963 0.212061 0.056480
0.491087 0.223709 0.056480
0.571681 0.233934 0.056480
0.648622 0.241333 0.056480
0.721454 0.246381 0.056480
0.787416 0.248998 0.056480
0.849614 0.249999 0.056480
0.906932 0.248957 0.056480
0.954994 0.246167 0.056480
0.990163 0.240332 0.056480
0.000000 0.255473 0.076415
0.066621 0.255473 0.072652
0.126360 0.255473 0.056637
0.206857 0.255473 0.056253
0.272870 0.256025 0.056480
0.333223 0.256225 0.056480
0.410963 0.272357 0.056480
0.491087 0.287934 0.056480
0.571681 0.301638 0.056480
0.648622 0.311505 0.056480
0.721454 0.318037 0.056480
0.787416 0.321168 0.056480
0.849614 0.321845 0.056480
0.906932 0.321779 0.056480
0.954994 0.317976 0.056480
0.990163 0.310178 0.056480
0.000000 0.331856 0.083368
0.066621 0.331856 0.078545
0.126360 0.331856 0.056764
0.215701 0.331856 0.056243
0.286434 0.331856 0.056480
0.350232 0.331912 0.056480
0.410963 0.331856 0.056480
0.491087 0.351251 0.056480
0.571681 0.368266 0.056480
0.648622 0.380519 0.056480
0.721454 0.388650 0.056480
0.787416 0.393139 0.056480
0.849614 0.394320 0.056480
0.906932 0.393366 0.056480
0.954994 0.388463 0.056480
0.990163 0.378801 0.056480
0.000000 0.414127 0.089767
0.066621 0.414127 0.084019
0.126360 0.414127 0.056289
0.224477 0.414127 0.056571
0.299903 0.414127 0.056480
0.366092 0.414127 0.056480
0.430176 0.414127 0.056480
0.491087 0.414127 0.056480
0.571681 0.434347 0.056480
0.648622 0.448940 0.056480
0.721454 0.458734 0.056480
0.787416 0.462606 0.056480
0.849614 0.465293 0.056480
0.906932 0.463569 0.056480
0.954994 0.458453 0.056480
0.990163 0.446980 0.056480
0.000000 0.500375 0.095383
0.066621 0.500375 0.088868
0.126360 0.500375 0.056637
0.232074 0.500375 0.056254
0.309662 0.500375 0.056480
0.380501 0.500375 0.056480
0.446836 0.500375 0.056480
0.510248 0.500375 0.056480
0.571681 0.500375 0.056480
0.648622 0.517222 0.056480
0.721454 0.528775 0.056480
0.787416 0.534858 0.056480
0.849614 0.536075 0.056480
0.906932 0.534540 0.056480
0.954994 0.528270 0.056480
0.990163 0.514984 0.056480
0.000000 0.585471 0.099501
0.066621 0.585471 0.092408
0.126360 0.585471 0.056365
0.237494 0.585471 0.056309
0.318445 0.585471 0.056480
0.390293 0.585471 0.056480
0.458740 0.585471 0.056480
0.523986 0.585471 0.056480
0.587126 0.585471 0.056480
0.648622 0.585471 0.056480
0.721620 0.598264 0.056480
0.787416 0.604156 0.056480
0.849614 0.606830 0.056480
0.906932 0.605532 0.056480
0.954994 0.597991 0.056480
0.990163 0.582907 0.056480
0.000000 0.667757 0.102225
0.066621 0.667757 0.094748
0.126360 0.667757 0.056424
0.240724 0.667757 0.056862
0.323769 0.667757 0.056480
0.397787 0.667757 0.056480
0.466484 0.667757 0.056480
0.532893 0.667757 0.056480
0.597157 0.667757 0.056480
0.659765 0.667757 0.056480
0.720980 0.667757 0.056480
0.787183 0.674647 0.056480
0.849614 0.677585 0.056480
0.906932 0.676441 0.056480
0.954994 0.667735 0.056480
0.990163 0.650805 0.056480
0.000000 0.746345 0.103800
0.066621 0.746345 0.096110
0.126360 0.746345 0.056239
0.242873 0.746345 0.056493
0.326393 0.746345 0.056480
0.400173 0.746345 0.056480
0.470785 0.746345 0.056480
0.537867 0.746345 0.056480
0.602745 0.746345 0.056480
0.665959 0.746345 0.056480
0.728097 0.746345 0.056480
0.788145 0.746345 0.056480
0.849614 0.748498 0.056480
0.906932 0.747636 0.056480
0.954994 0.737543 0.056480
0.990163 0.718880 0.056480
0.000000 0.819919 0.104379
0.066621 0.819919 0.096594
0.126360 0.819919 0.056753
0.242873 0.819919 0.056129
0.326856 0.819919 0.056480
0.401870 0.819919 0.056480
0.472172 0.819919 0.056480
0.539432 0.819919 0.056480
0.604557 0.819919 0.056480
0.667972 0.819919 0.056480
0.729905 0.819919 0.056480
0.790920 0.819919 0.056480
0.849614 0.819327 0.056480
0.906932 0.817658 0.056480
0.954994 0.807451 0.056480
0.990163 0.786968 0.056480
0.000000 0.887856 0.104011
0.066621 0.887856 0.096259
0.126360 0.887856 0.056423
0.242873 0.887856 0.056627
0.326369 0.887856 0.056480
0.400176 0.887856 0.056480
0.470756 0.887856 0.056480
0.537838 0.887856 0.056480
0.602716 0.887856 0.056480
0.665956 0.887856 0.056480
0.728051 0.887856 0.056480
0.788143 0.887856 0.056480
0.847163 0.888474 0.056480
0.906932 0.888091 0.056480
0.954994 0.877533 0.056480
0.990163 0.855260 0.056480
0.000000 0.947487 0.102645
0.066621 0.947487 0.095059
0.126360 0.947487 0.056803
0.240724 0.947487 0.056328
0.323754 0.947487 0.056480
0.397764 0.947487 0.056480
0.466486 0.947487 0.056480
0.532875 0.947487 0.056480
0.597139 0.947487 0.056480
0.659749 0.947487 0.056480
0.720950 0.947487 0.056480
0.780485 0.947487 0.056480
0.839703 0.947487 0.056480
0.897989 0.947364 0.056480
0.954994 0.947487 0.056480
0.990163 0.923450 0.056480
0.000000 0.991206 0.099636
0.066621 0.991206 0.092405
0.126360 0.991206 0.056491
0.236414 0.991206 0.056313
0.317706 0.991206 0.056480
0.389291 0.991206 0.056480
0.457114 0.991206 0.056480
0.522125 0.991206 0.056480
0.585054 0.991206 0.056480
0.646354 0.991206 0.056480
0.705945 0.991206 0.056480
0.764948 0.991206 0.056480
0.822128 0.991206 0.056480
0.879945 0.991206 0.056480
0.935448 0.991206 0.056480
0.990163 0.991206 0.056480
0.000000 0.000000 0.102062
0.076589 0.000000 0.102062
0.134907 0.000000 0.102062
0.190282 0.000000 0.102062
0.258119 0.000000 0.113292
0.333223 0.000000 0.125271
0.410963 0.000000 0.136319
0.491087 0.000000 0.146783
0.571681 0.000000 0.155984
0.648622 0.000000 0.162694
0.721454 0.000000 0.167551
0.787416 0.000000 0.169488
0.849614 0.000000 0.170770
0.906932 0.000000 0.170689
0.954994 0.000000 0.167863
0.990163 0.000000 0.162938
0.000000 0.041020 0.102062
0.066621 0.034485 0.102062
0.133695 0.034666 0.102062
0.190079 0.034485 0.102062
0.258119 0.034485 0.111735
0.333223 0.034485 0.123111
0.410963 0.034485 0.133770
0.491087 0.034485 0.143612
0.571681 0.034485 0.152289
0.648622 0.034485 0.158628
0.721454 0.034485 0.162846
0.787416 0.034485 0.164426
0.849614 0.034485 0.165274
0.906932 0.034485 0.165394
0.954994 0.034485 0.163337
0.990163 0.034485 0.158637
0.000000 0.083739 0.102062
0.066621 0.082211 0.102062
0.126360 0.077246 0.102062
0.190079 0.076642 0.102062
0.258119 0.076934 0.108969
0.333223 0.076934 0.116730
0.410963 0.076934 0.123525
0.491087 0.076934 0.130530
0.571681 0.076934 0.136771
0.648622 0.076934 0.141357
0.721454 0.076934 0.144293
0.787416 0.076934 0.145135
0.849614 0.076934 0.146261
0.906932 0.076934 0.146378
0.954994 0.076934 0.144369
0.990163 0.076934 0.140717
0.000000 0.127137 0.102062
0.066621 0.127137 0.102062
0.126360 0.127137 0.102062
0.188942 0.126191 0.101181
0.258119 0.127137 0.102062
0.333223 0.127137 0.102062
0.410963 0.127137 0.102062
0.491087 0.127137 0.102062
0.571681 0.127137 0.102062
0.648622 0.127137 0.102062
0.721454 0.127137 0.102062
0.787416 0.127137 0.102062
0.849614 0.127137 0.102062
0.906932 0.127137 0.102062
0.954994 0.127137 0.102062
0.990163 0.127137 0.102062
0.000000 0.186753 0.113255
0.066621 0.186752 0.112279
0.126360 0.186753 0.108740
0.188942 0.186752 0.101526
0.259183 0.186800 0.102062
0.333223 0.194131 0.102062
0.410963 0.202043 0.102062
0.491087 0.209376 0.102062
0.571681 0.215996 0.102062
0.648622 0.220747 0.102062
0.721454 0.224595 0.102062
0.787416 0.225532 0.102062
0.849614 0.225866 0.102062
0.906932 0.225417 0.102062
0.954994 0.222983 0.102062
0.990163 0.218732 0.102062
0.000000 0.255473 0.124954
0.066621 0.255473 0.123143
0.126360 0.255473 0.115802
0.188942 0.255473 0.101446
0.267626 0.255878 0.102062
0.333223 0.255504 0.102062
0.410963 0.268358 0.102062
0.491087 0.280484 0.102062
0.571681 0.291255 0.102062
0.648622 0.298991 0.102062
0.721454 0.303786 0.102062
0.787416 0.306712 0.102062
0.849614 0.306421 0.102062
0.906932 0.305359 0.102062
0.954994 0.302584 0.102062
0.990163 0.295723 0.102062
0.000000 0.331856 0.136319
0.066621 0.331856 0.133770
0.126360 0.331856 0.123334
0.188942 0.331856 0.100988
0.276023 0.331856 0.102062
0.346225 0.331637 0.102062
0.410963 0.331856 0.102062
0.491087 0.348091 0.102062
0.571681 0.362435 0.102062
0.648622 0.372643 0.102062
0.721454 0.378977 0.102062
0.787416 0.382386 0.102062
0.849614 0.383230 0.102062
0.906932 0.381896 0.102062
0.954994 0.377415 0.102062
0.990163 0.368312 0.102062
0.000000 0.414127 0.146783
0.066621 0.414127 0.143612
0.126360 0.414127 0.130828
0.188942 0.414127 0.101416
0.284118 0.414127 0.102062
0.359175 0.414127 0.102062
0.427083 0.414127 0.102062
0.491087 0.414127 0.102062
