luts/03_Inspired By Peter McKinnon LUTs_Pure Whites.cube
LUT_3D_SIZE 6
0.000000 0.000000 0.000000
0.188942 0.000000 0.000000
0.410963 0.000000 0.000000
0.648622 0.000000 0.000000
0.849614 0.000000 0.000000
0.990163 0.000000 0.000000
0.000000 0.127137 0.000000
0.190282 0.127137 0.000000
0.410963 0.162524 0.000000
0.648622 0.188877 0.000000
0.849614 0.196794 0.000000
0.990163 0.189118 0.000000
0.000000 0.331856 0.000000
0.231781 0.331856 0.000000
0.410963 0.331856 0.000000
0.648622 0.385617 0.000000
0.849614 0.401747 0.000000
0.990163 0.386124 0.000000
0.000000 0.585471 0.000000
0.260945 0.585471 0.000000
0.463715 0.585471 0.000000
0.648622 0.585471 0.000000
0.849614 0.609044 0.000000
0.990163 0.586196 0.000000
0.000000 0.819919 0.000000
0.270162 0.819919 0.000000
0.479114 0.819919 0.000000
0.670150 0.819919 0.000000
0.849614 0.819302 0.000000
0.990163 0.788314 0.000000
0.000000 0.991206 0.000000
0.261027 0.991206 0.000000
0.464175 0.991206 0.000000
0.649267 0.991206 0.000000
0.823212 0.991206 0.000000
0.990163 0.991206 0.000000
0.000000 0.000000 0.102062
0.190282 0.000000 0.102062
0.410963 0.000000 0.136319
0.648622 0.000000 0.162694
0.849614 0.000000 0.170770
0.990163 0.000000 0.162938
0.000000 0.127137 0.102062
0.188942 0.126191 0.101181
0.410963 0.127137 0.102062
0.648622 0.127137 0.102062
0.849614 0.127137 0.102062
0.990163 0.127137 0.102062
0.000000 0.331856 0.136319
0.188942 0.331856 0.100988
0.410963 0.331856 0.102062
0.648622 0.372643 0.102062
0.849614 0.383230 0.102062
0.990163 0.368312 0.102062
0.000000 0.585471 0.162694
0.188942 0.585471 0.101208
0.451137 0.585471 0.102062
0.648622 0.585471 0.102062
0.849614 0.603239 0.102062
0.990163 0.578272 0.102062
0.000000 0.819919 0.170678
0.188942 0.819919 0.100976
0.461680 0.819919 0.102062
0.664648 0.819919 0.102062
0.849614 0.819799 0.102062
0.990163 0.785070 0.102062
0.000000 0.991206 0.162938
0.188942 0.991206 0.101216
0.446896 0.991206 0.102062
0.642179 0.991206 0.102062
0.820806 0.991206 0.102062
0.990163 0.991206 0.102062
0.000000 0.000000 0.316038
0.231781 0.000000 0.316038
0.410963 0.000000 0.316038
0.648622 0.000000 0.377219
0.849614 0.000000 0.395857
0.990163 0.000000 0.377760
0.000000 0.162524 0.316038
0.188942 0.125985 0.316038
0.410963 0.127137 0.316038
0.648622 0.127137 0.362296
0.849614 0.127137 0.374437
0.990163 0.127137 0.357326
0.000000 0.331856 0.316038
0.188942 0.331856 0.316038
0.410963 0.331856 0.316038
0.648622 0.331856 0.316038
0.849614 0.331856 0.316038
0.990163 0.331856 0.316038
0.000000 0.585471 0.377219
0.188942 0.585471 0.362622
0.410963 0.585471 0.316038
0.648622 0.585471 0.316038
0.849614 0.587550 0.316038
0.990163 0.563156 0.316038
0.000000 0.819919 0.395760
0.188942 0.819919 0.374917
0.410963 0.819919 0.316038
0.650318 0.819919 0.316038
0.849614 0.819323 0.316038
0.990163 0.779297 0.316038
0.000000 0.991206 0.377760
0.188942 0.991206 0.358222
0.410963 0.991206 0.316038
0.628662 0.991206 0.316038
0.816052 0.991206 0.316038
0.990163 0.991206 0.316038
0.000000 0.000000 0.616902
0.260945 0.000000 0.616902
0.463715 0.000000 0.616902
0.648622 0.000000 0.616902
0.849614 0.000000 0.646306
0.990163 0.000000 0.617796
0.000000 0.188877 0.616902
0.188942 0.126230 0.616902
0.451137 0.127137 0.616902
0.648622 0.127137 0.616902
0.849614 0.127137 0.639005
0.990163 0.127137 0.607957
0.000000 0.385617 0.616902
0.188942 0.372946 0.616902
0.410963 0.331856 0.616902
0.648622 0.331856 0.616902
0.849614 0.331856 0.619498
0.990163 0.331856 0.589282
0.000000 0.585471 0.616902
0.188942 0.585471 0.616902
0.410963 0.585471 0.616902
0.648622 0.585471 0.616902
0.849614 0.585471 0.616902
0.990163 0.585471 0.616902
0.000000 0.819919 0.647141
0.188942 0.819919 0.639146
0.410963 0.819919 0.619297
0.648622 0.819919 0.616902
0.849614 0.819308 0.616902
0.990163 0.787984 0.616902
0.000000 0.991206 0.617796
0.188942 0.991206 0.608423
0.410963 0.991206 0.589282
0.648622 0.991206 0.616902
0.823172 0.991206 0.616902
0.990163 0.991206 0.616902
0.000000 0.000000 0.914157
0.270162 0.000000 0.914157
0.479114 0.000000 0.914157
0.670150 0.000000 0.914157
0.849614 0.000000 0.913456
0.990163 0.000000 0.875771
0.000000 0.196706 0.914157
0.188942 0.125981 0.914157
0.461680 0.127137 0.914157
0.664648 0.127137 0.914157
0.849614 0.127137 0.914076
0.990163 0.127137 0.871592
0.000000 0.401652 0.914157
0.188942 0.383649 0.914157
0.410963 0.331856 0.914157
0.650318 0.331856 0.914157
0.849614 0.331856 0.913482
0.990163 0.331856 0.864030
0.000000 0.609770 0.914157
0.188942 0.603350 0.914157
0.410963 0.587430 0.914157
0.648622 0.585471 0.914157
0.849614 0.585471 0.913464
0.990163 0.585471 0.875352
0.000000 0.819919 0.914157
0.188942 0.819919 0.914157
0.410963 0.819919 0.914157
0.648622 0.819919 0.914157
0.849614 0.819919 0.914157
0.990163 0.819919 0.914157
0.000000 0.991206 0.875771
0.188942 0.991206 0.871482
0.410963 0.991206 0.864030
0.648622 0.991206 0.875352
0.849626 0.991206 0.914157
0.990163 0.991206 0.914157
0.000000 0.000000 1.000000
0.261027 0.000000 1.000000
0.464175 0.000000 1.000000
0.649267 0.000000 1.000000
0.823212 0.000000 1.000000
0.990163 0.000000 1.000000
0.000000 0.189118 1.000000
0.188942 0.126240 1.000000
0.446896 0.127137 1.000000
0.642179 0.127137 1.000000
0.820806 0.127137 1.000000
0.990163 0.127137 1.000000
0.000000 0.386124 1.000000
0.188942 0.369058 1.000000
0.410963 0.331856 1.000000
0.628662 0.331856 1.000000
0.816052 0.331856 1.000000
0.990163 0.331856 1.000000
0.000000 0.586196 1.000000
0.188942 0.578650 1.000000
0.410963 0.563156 1.000000
0.648622 0.585471 1.000000
0.823172 0.585471 1.000000
0.990163 0.585471 1.000000
0.000000 0.788314 1.000000
0.188942 0.785049 1.000000
0.410963 0.779297 1.000000
0.648622 0.787984 1.000000
0.849626 0.819919 1.000000
0.990163 0.819919 1.000000
0.000000 0.991206 1.000000
0.188942 0.991206 1.000000
0.410963 0.991206 1.000000
0.648622 0.991206 1.000000
0.849614 0.991206 1.000000
0.990163 0.991206 1.000000
